assets/instagram.svg

<svg fill="none" height="14" viewBox="0 0 14 14" width="14" xmlns="http://www.w3.org/2000/svg"><path clip-rule="evenodd" d="m7 9.43939c1.27273 0 2.33333-1.0606 2.33333-2.33333s-1.0606-2.33333-2.33333-2.33333-2.33333 1.0606-2.33333 2.33333 1.0606 2.33333 2.33333 2.33333zm5.8333-2.33333c0-1.90909 0-2.12121 0-2.86364-.106-1.90909-.9545-2.75757-2.8636-2.86363-.74243 0-.95455 0-2.86364 0s-2.12121 0-2.86364 0c-2.01515.10606-2.86363.95454-2.96969 2.86363v2.86364 2.86364c.10606 1.9091.95454 2.7576 2.86363 2.8636h2.86364 2.86364c1.90906-.106 2.75756-.9545 2.86366-2.8636.106-.74243.106-.95455.106-2.86364zm-5.8333-3.60606c2.01515 0 3.6061 1.59091 3.6061 3.60606s-1.59095 3.60604-3.6061 3.60604-3.60606-1.59089-3.60606-3.60604 1.59091-3.60606 3.60606-3.60606zm3.8182-1.06061c.4242 0 .8485.42425.8485.84849s-.4243.84848-.8485.84848c-.4243 0-.8485-.42424-.8485-.84848s.3182-.84849.8485-.84849zm3.1818 1.69697v2.86364 2.86364c-.1061 2.54546-1.5909 4.03026-4.13636 4.13636-.74243 0-.95455 0-2.86364 0s-2.12121 0-2.86364 0c-2.54545-.1061-4.030299-1.5909-4.13636-4.13636 0-.74243 0-.95455 0-2.86364s0-2.12121 0-2.86364c.106061-2.54545 1.59091-4.030299 4.13636-4.13636h2.86364 2.86364c2.65156.212121 4.03026 1.59091 4.13636 4.13636z" fill="#191919" fill-rule="evenodd"/></svg>

<svg width="14" height="14" viewBox="0 0 14 14" fill="none" xmlns="http://www.w3.org/2000/svg">
<path fill-rule="evenodd" clip-rule="evenodd" d="M7 9.43939C8.27273 9.43939 9.33333 8.37879 9.33333 7.10606C9.33333 5.83333 8.27273 4.77273 7 4.77273C5.72727 4.77273 4.66667 5.83333 4.66667 7.10606C4.66667 8.37879 5.72727 9.43939 7 9.43939ZM12.8333 7.10606C12.8333 5.19697 12.8333 4.98485 12.8333 4.24242C12.7273 2.33333 11.8788 1.48485 9.9697 1.37879C9.22727 1.37879 9.01515 1.37879 7.10606 1.37879C5.19697 1.37879 4.98485 1.37879 4.24242 1.37879C2.22727 1.48485 1.37879 2.33333 1.27273 4.24242C1.27273 4.98485 1.27273 5.19697 1.27273 7.10606C1.27273 9.01515 1.27273 9.22727 1.27273 9.9697C1.37879 11.8788 2.22727 12.7273 4.13636 12.8333C4.87879 12.8333 5.09091 12.8333 7 12.8333C8.90909 12.8333 9.12121 12.8333 9.86364 12.8333C11.7727 12.7273 12.6212 11.8788 12.7273 9.9697C12.8333 9.22727 12.8333 9.01515 12.8333 7.10606ZM7 3.5C9.01515 3.5 10.6061 5.09091 10.6061 7.10606C10.6061 9.12121 9.01515 10.7121 7 10.7121C4.98485 10.7121 3.39394 9.12121 3.39394 7.10606C3.39394 5.09091 4.98485 3.5 7 3.5ZM10.8182 2.43939C11.2424 2.43939 11.6667 2.86364 11.6667 3.28788C11.6667 3.71212 11.2424 4.13636 10.8182 4.13636C10.3939 4.13636 9.9697 3.71212 9.9697 3.28788C9.9697 2.86364 10.2879 2.43939 10.8182 2.43939ZM14 4.13636C14 4.87879 14 5.09091 14 7C14 8.90909 14 9.12121 14 9.86364C13.8939 12.4091 12.4091 13.8939 9.86364 14C9.12121 14 8.90909 14 7 14C5.09091 14 4.87879 14 4.13636 14C1.59091 13.8939 0.106061 12.4091 0 9.86364C0 9.12121 0 8.90909 0 7C0 5.09091 0 4.87879 0 4.13636C0.106061 1.59091 1.59091 0.106061 4.13636 0C4.87879 0 5.09091 0 7 0C8.90909 0 9.12121 0 9.86364 0C12.5152 0.212121 13.8939 1.59091 14 4.13636Z" fill="#191919"/>
</svg>
